assets/emojis/GrinningFacewithSweat.svg

<svg width="129" height="126" viewBox="0 0 129 126" fill="none" xmlns="http://www.w3.org/2000/svg">
<circle cx="62.9922" cy="62.77" r="62.3496" fill="#F9B42F"/>
<path opacity="0.3" fill-rule="evenodd" clip-rule="evenodd" d="M113.926 98.9413C102.604 110.533 86.8021 117.728 69.3193 117.728C34.8845 117.728 6.96966 89.8133 6.96966 55.3786C6.96966 41.9829 11.1941 29.5739 18.3835 19.4111C7.40576 30.6503 0.640625 46.022 0.640625 62.9739C0.640625 97.4086 28.5555 125.324 62.9902 125.324C84.0293 125.324 102.634 114.903 113.926 98.9413Z" fill="#BC8417"/>
<path d="M115.076 17.3065L104.873 34.5713C103.765 36.4366 103.183 38.5514 103.186 40.7035C103.188 42.8556 103.774 44.9692 104.886 46.8322C105.998 48.6952 107.596 50.242 109.519 51.3174C111.443 52.3928 113.625 52.9589 115.845 52.9589C118.066 52.9589 120.248 52.3928 122.171 51.3174C124.095 50.242 125.693 48.6952 126.805 46.8322C127.916 44.9692 128.503 42.8556 128.505 40.7035C128.508 38.5514 127.926 36.4366 126.818 34.5713L116.615 17.3065C116.536 17.1762 116.424 17.0682 116.289 16.993C116.154 16.9179 116.001 16.8784 115.845 16.8784C115.69 16.8784 115.537 16.9179 115.402 16.993C115.267 17.0682 115.155 17.1762 115.076 17.3065Z" fill="#D5F3FF"/>
<path d="M46.6792 62.4539C45.9626 62.4539 45.2754 62.1734 44.7687 61.6742C44.262 61.1749 43.9774 60.4978 43.9774 59.7918C43.9774 58.8881 43.613 58.0213 42.9645 57.3823C42.3159 56.7433 41.4363 56.3843 40.5191 56.3843C39.6019 56.3843 38.7223 56.7433 38.0737 57.3823C37.4252 58.0213 37.0608 58.8881 37.0608 59.7918C37.0608 60.4978 36.7762 61.1749 36.2695 61.6742C35.7628 62.1734 35.0756 62.4539 34.359 62.4539C33.6425 62.4539 32.9552 62.1734 32.4486 61.6742C31.9419 61.1749 31.6572 60.4978 31.6572 59.7918C31.6572 57.476 32.5909 55.255 34.2528 53.6175C35.9147 51.98 38.1688 51.0601 40.5191 51.0601C42.8694 51.0601 45.1235 51.98 46.7854 53.6175C48.4473 55.255 49.381 57.476 49.381 59.7918C49.381 60.4978 49.0963 61.1749 48.5896 61.6742C48.0829 62.1734 47.3957 62.4539 46.6792 62.4539Z" fill="#2C2A46"/>
<path d="M94.7866 62.4539C94.07 62.4539 93.3828 62.1734 92.8761 61.6742C92.3695 61.1749 92.0848 60.4978 92.0848 59.7918C92.0848 58.8881 91.7205 58.0213 91.0719 57.3823C90.4233 56.7433 89.5437 56.3843 88.6265 56.3843C87.7093 56.3843 86.8297 56.7433 86.1811 57.3823C85.5326 58.0213 85.1682 58.8881 85.1682 59.7918C85.1682 60.4978 84.8836 61.1749 84.3769 61.6742C83.8702 62.1734 83.183 62.4539 82.4664 62.4539C81.7499 62.4539 81.0627 62.1734 80.556 61.6742C80.0493 61.1749 79.7646 60.4978 79.7646 59.7918C79.7646 57.476 80.6983 55.255 82.3602 53.6175C84.0222 51.98 86.2762 51.0601 88.6265 51.0601C90.9768 51.0601 93.2309 51.98 94.8928 53.6175C96.5547 55.255 97.4884 57.476 97.4884 59.7918C97.4884 60.4978 97.2037 61.1749 96.6971 61.6742C96.1904 62.1734 95.5032 62.4539 94.7866 62.4539Z" fill="#2C2A46"/>
<path d="M81.534 76.3799H48.386C45.714 76.3799 44.7435 79.5322 46.634 81.4438C50.7807 85.5962 56.3894 90.3057 64.9474 90.3057C73.5053 90.3057 79.114 85.5583 83.2607 81.4438C85.1765 79.5322 84.206 76.3799 81.534 76.3799Z" fill="#2C2A46"/>
</svg>

<svg xmlns="http://www.w3.org/2000/svg" width="129" height="126" fill="none" viewBox="0 0 129 126"><circle cx="62.992" cy="62.77" r="62.35" fill="#f9b42f"/><path fill="#bc8417" fill-rule="evenodd" d="M113.926 98.941c-11.322 11.592-27.124 18.787-44.607 18.787-34.434 0-62.35-27.915-62.35-62.35 0-13.395 4.225-25.804 11.415-35.967C7.406 30.651.64 46.022.64 62.974c0 34.435 27.914 62.35 62.35 62.35 21.038 0 39.643-10.421 50.935-26.383" clip-rule="evenodd" opacity=".3"/><path fill="#d5f3ff" d="M115.076 17.307 104.873 34.57a11.97 11.97 0 0 0-1.687 6.133 11.97 11.97 0 0 0 1.7 6.128 12.5 12.5 0 0 0 4.633 4.485 13 13 0 0 0 6.326 1.642 13 13 0 0 0 6.326-1.642 12.5 12.5 0 0 0 4.634-4.485 12 12 0 0 0 1.7-6.129 11.97 11.97 0 0 0-1.687-6.132l-10.203-17.264a.9.9 0 0 0-.326-.314.91.91 0 0 0-.887 0 .9.9 0 0 0-.326.314"/><path fill="#2c2a46" d="M46.68 62.454c-.717 0-1.405-.28-1.911-.78a2.64 2.64 0 0 1-.792-1.882c0-.904-.364-1.77-1.012-2.41a3.5 3.5 0 0 0-2.446-.998c-.917 0-1.797.36-2.445.998a3.38 3.38 0 0 0-1.013 2.41c0 .706-.285 1.383-.791 1.882-.507.5-1.194.78-1.911.78s-1.404-.28-1.91-.78a2.64 2.64 0 0 1-.792-1.882 8.67 8.67 0 0 1 2.596-6.175 8.93 8.93 0 0 1 6.266-2.557c2.35 0 4.605.92 6.266 2.557a8.67 8.67 0 0 1 2.596 6.175c0 .706-.285 1.383-.791 1.882a2.72 2.72 0 0 1-1.91.78m48.107 0c-.717 0-1.404-.28-1.91-.78a2.64 2.64 0 0 1-.792-1.882c0-.904-.364-1.77-1.013-2.41a3.5 3.5 0 0 0-2.446-.998 3.5 3.5 0 0 0-2.445.998 3.38 3.38 0 0 0-1.013 2.41 2.64 2.64 0 0 1-.791 1.882 2.72 2.72 0 0 1-1.91.78 2.72 2.72 0 0 1-1.911-.78 2.64 2.64 0 0 1-.791-1.882c0-2.316.933-4.537 2.595-6.175a8.93 8.93 0 0 1 6.266-2.557c2.35 0 4.605.92 6.267 2.557a8.67 8.67 0 0 1 2.595 6.175c0 .706-.284 1.383-.79 1.882-.508.5-1.195.78-1.911.78M81.534 76.38H48.386c-2.672 0-3.643 3.152-1.752 5.064 4.147 4.152 9.755 8.862 18.313 8.862s14.167-4.748 18.314-8.862c1.916-1.912.945-5.064-1.727-5.064"/></svg>
